X:64
M:2/4
L:1/4
K:F
F | B G/ G/ | A G/ F/ | G2 | F  F | G A/ A/ | c B/ A/ | G2 | A F | A G/ G/ | F E/ C/ | D2 | C  !sintro!c | d B/ B/ | c B/ A/ | G2 | F !eintro!|]
